dist/img/funnel.svg

<svg width="22" height="22" viewBox="0 0 22 22" fill="none" xmlns="http://www.w3.org/2000/svg">
<path d="M20.8175 1.6565e-06H1.20393C0.85778 -0.000652692 0.54064 0.192598 0.382506 0.500358C0.222191 0.812263 0.250328 1.18786 0.455139 1.47272L7.64074 11.5952C7.64314 11.5987 7.64575 11.602 7.64815 11.6055C7.90924 11.958 8.05057 12.385 8.05123 12.8237V21.0765C8.0497 21.3208 8.14567 21.5557 8.31777 21.7291C8.49008 21.9023 8.72433 22 8.96862 22C9.09273 21.9998 9.21575 21.9751 9.33048 21.9274L13.3682 20.3879C13.7299 20.2773 13.97 19.936 13.97 19.525V12.8237C13.9707 12.385 14.112 11.958 14.3729 11.6055C14.3753 11.602 14.3779 11.5987 14.3803 11.5952L21.5661 1.4725C21.7709 1.18786 21.799 0.812481 21.6387 0.500576C21.4808 0.192598 21.1635 -0.000652692 20.8175 1.6565e-06Z" fill="#0ACA43"/>
</svg>

<svg width="22" height="22" fill="none" xmlns="http://www.w3.org/2000/svg"><path d="M20.817 0H1.204a.921.921 0 00-.821.5.934.934 0 00.072.973l7.186 10.122.007.01c.261.353.403.78.403 1.219v8.252a.918.918 0 001.28.851l4.037-1.54c.362-.11.602-.451.602-.862v-6.701c0-.439.142-.866.403-1.219l.007-.01 7.186-10.123a.933.933 0 00.073-.971.92.92 0 00-.822-.501z" fill="#0ACA43"/></svg>
